X: 21642
T: Killeigh, The
R: hornpipe
M: 4/4
K: Gmajor
|:G>F|G2 (3AGF G>AB>d|(3gbg e>g d>GB>d|e>GB>d B>AG>B|(3ABA (3GFE D>EF>A|
G2 (3AGF G2 (3Bcd|g2 e>g d2 (3Bcd|e>GB>d B>AG>E|G2 (3AGF G3:|
|:G>B|d>GB>d e>GB>d|g2 b>g d>GB>d|c>ec>A B>dB>G|(3ABA (3GFE D3 B|
d>GB>d e>GB>d|g2 b>g d>G (3Bcd|E>GB>d B>AG>E|G>A (3AGF G2-:|

